icons/svg/video-layout-equal_28.svg

<svg width="28" height="28" viewBox="0 0 28 28" fill="none" xmlns="http://www.w3.org/2000/svg">
<path fill-rule="evenodd" clip-rule="evenodd" d="M13.5 4H3C1.89543 4 1 4.89543 1 6V13.5H13.5V4ZM14.5 4V13.5H27V6C27 4.89543 26.1046 4 25 4H14.5ZM13.5 14.5H1V22C1 23.1046 1.89543 24 3 24H13.5V14.5ZM14.5 24H25C26.1046 24 27 23.1046 27 22V14.5H14.5V24ZM3 3C1.34315 3 0 4.34315 0 6V22C0 23.6569 1.34315 25 3 25H25C26.6569 25 28 23.6569 28 22V6C28 4.34315 26.6569 3 25 3H3Z" fill="#121212"/>
</svg>

<?xml version="1.0" encoding="utf-8"?>
<!-- Generator: Adobe Illustrator 25.0.0, SVG Export Plug-In . SVG Version: 6.00 Build 0)  -->
<svg version="1.1" id="Layer_1" xmlns="http://www.w3.org/2000/svg" xmlns:xlink="http://www.w3.org/1999/xlink" x="0px" y="0px"
	 viewBox="0 0 28 28" style="enable-background:new 0 0 28 28;" xml:space="preserve">
<style type="text/css">
	.st0{fill-rule:evenodd;clip-rule:evenodd;fill:#121212;}
</style>
<path class="st0" d="M13.5,4H3C1.9,4,1,4.9,1,6v7.5h12.5V4z M14.5,4v9.5H27V6c0-1.1-0.9-2-2-2H14.5z M13.5,14.5H1V22
	c0,1.1,0.9,2,2,2h10.5V14.5z M14.5,24H25c1.1,0,2-0.9,2-2v-7.5H14.5V24z M3,3C1.3,3,0,4.3,0,6v16c0,1.7,1.3,3,3,3h22
	c1.7,0,3-1.3,3-3V6c0-1.7-1.3-3-3-3H3z"/>
</svg>
